src/shared/assets/images/Like/Like.svg

<svg width="71" height="70" viewBox="0 0 71 70" fill="none" xmlns="http://www.w3.org/2000/svg">
<rect x="5.5" y="3.5" width="59" height="59" rx="29.5" stroke="#129E68"/>
<g filter="url(#filter0_d_1_14257)">
<rect x="6" y="4" width="58" height="58" rx="29" fill="white" fill-opacity="0.01" shape-rendering="crispEdges"/>
<g clip-path="url(#clip0_1_14257)">
<path d="M47.076 30.8552C47.076 26.5076 44.1821 23.349 40.1644 23.349C38.0135 23.349 36.8572 24.1308 35.0048 25.9288C33.1428 24.1308 31.9852 23.3333 29.8428 23.3333C25.8251 23.3333 22.9166 26.4992 22.9166 30.8625C22.9166 32.6991 23.5655 34.427 24.769 35.7876L34.4647 44.6773C34.7619 44.9432 35.2465 44.9432 35.5353 44.6773L44.292 36.7265L44.8237 36.242L45.0195 36.022L45.2225 35.8118C46.4267 34.4477 47.0888 32.6893 47.0833 30.8697" fill="#199A6A"/>
</g>
</g>
<defs>
<filter id="filter0_d_1_14257" x="0" y="0" width="71" height="70" filterUnits="userSpaceOnUse" color-interpolation-filters="sRGB">
<feFlood flood-opacity="0" result="BackgroundImageFix"/>
<feColorMatrix in="SourceAlpha" type="matrix" values="0 0 0 0 0 0 0 0 0 0 0 0 0 0 0 0 0 0 127 0" result="hardAlpha"/>
<feOffset dy="2"/>
<feGaussianBlur stdDeviation="3"/>
<feComposite in2="hardAlpha" operator="out"/>
<feColorMatrix type="matrix" values="0 0 0 0 0.396078 0 0 0 0 0.431373 0 0 0 0 0.482353 0 0 0 0.12 0"/>
<feBlend mode="normal" in2="BackgroundImageFix" result="effect1_dropShadow_1_14257"/>
<feBlend mode="normal" in="SourceGraphic" in2="effect1_dropShadow_1_14257" result="shape"/>
</filter>
<clipPath id="clip0_1_14257">
<rect width="29" height="29" fill="white" transform="translate(20.5 18.5)"/>
</clipPath>
</defs>
</svg>

<svg xmlns="http://www.w3.org/2000/svg" width="71" height="70" fill="none"><rect width="59" height="59" x="5.5" y="3.5" stroke="#129E68" rx="29.5"/><g filter="url(#a)"><rect width="58" height="58" x="6" y="4" fill="#fff" fill-opacity=".01" rx="29" shape-rendering="crispEdges"/><g clip-path="url(#b)"><path fill="#199A6A" d="M47.076 30.855c0-4.347-2.894-7.506-6.912-7.506-2.15 0-3.307.782-5.16 2.58-1.861-1.798-3.019-2.596-5.161-2.596-4.018 0-6.926 3.166-6.926 7.53 0 1.836.648 3.564 1.852 4.925l9.696 8.89a.82.82 0 0 0 1.07 0l8.757-7.951.532-.485.196-.22.202-.21a7.43 7.43 0 0 0 1.861-4.942"/></g></g><defs><clipPath id="b"><path fill="#fff" d="M20.5 18.5h29v29h-29z"/></clipPath><filter id="a" width="71" height="70" x="0" y="0" color-interpolation-filters="sRGB" filterUnits="userSpaceOnUse"><feFlood flood-opacity="0" result="BackgroundImageFix"/><feColorMatrix in="SourceAlpha" result="hardAlpha" values="0 0 0 0 0 0 0 0 0 0 0 0 0 0 0 0 0 0 127 0"/><feOffset dy="2"/><feGaussianBlur stdDeviation="3"/><feComposite in2="hardAlpha" operator="out"/><feColorMatrix values="0 0 0 0 0.396078 0 0 0 0 0.431373 0 0 0 0 0.482353 0 0 0 0.12 0"/><feBlend in2="BackgroundImageFix" result="effect1_dropShadow_1_14257"/><feBlend in="SourceGraphic" in2="effect1_dropShadow_1_14257" result="shape"/></filter></defs></svg>
